src/assets/mh-icons/Hammer_Rank_01.svg

<?xml version="1.0" encoding="UTF-8" standalone="no"?>
<svg
   width="100%"
   height="100%"
   viewBox="0 0 64 64"
   version="1.1"
   xml:space="preserve"
   style="fill-rule:evenodd;clip-rule:evenodd;stroke-linejoin:round;stroke-miterlimit:2;"
   id="svg9143"
   sodipodi:docname="Hammer_Rank_01.svg"
   inkscape:version="1.2.2 (732a01da63, 2022-12-09)"
   xmlns:inkscape="http://www.inkscape.org/namespaces/inkscape"
   xmlns:sodipodi="http://sodipodi.sourceforge.net/DTD/sodipodi-0.dtd"
   xmlns="http://www.w3.org/2000/svg"
   xmlns:svg="http://www.w3.org/2000/svg"><defs
   id="defs9147">
        
    
            
        
                
                
                
            
                    
                
                    
                
                    
                </defs><sodipodi:namedview
   id="namedview9145"
   pagecolor="#505050"
   bordercolor="#eeeeee"
   borderopacity="1"
   inkscape:showpageshadow="0"
   inkscape:pageopacity="0"
   inkscape:pagecheckerboard="0"
   inkscape:deskcolor="#505050"
   showgrid="false"
   inkscape:zoom="16.046875"
   inkscape:cx="32"
   inkscape:cy="31.968841"
   inkscape:window-width="3440"
   inkscape:window-height="1377"
   inkscape:window-x="-8"
   inkscape:window-y="-8"
   inkscape:window-maximized="1"
   inkscape:current-layer="svg9143" />
    <path
   id="path9129"
   style="fill-opacity:0.76;stroke:#000000;stroke-opacity:1;stroke-width:4;stroke-dasharray:none;fill:none"
   d="M 32 7 L 29 10 L 25.994141 13.009766 L 18 13.009766 C 16.896001 13.009766 16 13.905767 16 15.009766 L 16 17.007812 L 13 20.005859 L 10 23.005859 L 13 26.005859 L 16 29.005859 L 16 31 C 16 32.103999 16.896001 33 18 33 L 29.5 33 L 29.5 37 L 29.5 40 L 29.5 42 L 29.5 45 L 29.5 47 L 29.5 50 L 29.5 53 L 29.5 59 L 34.5 59 L 34.5 53 L 34.5 50 L 34.5 47 L 34.5 45 L 34.5 42 L 34.5 40 L 34.5 37 L 34.5 33 L 46 33 C 47.103999 33 48 32.103999 48 31 L 48 29.005859 L 51 26.005859 L 54 23.005859 L 51 20.005859 L 48 17.005859 L 48 15.009766 C 48 13.905767 47.103999 13.009766 46 13.009766 L 38.005859 13.009766 L 35 10 L 32 7 z " />
<g
   transform="matrix(1,0,0,1,0,-384)"
   id="g9645">
        <g
   transform="matrix(1,0,0,1,-384,-576)"
   id="g9643">
            <g
   id="g9641">
                <g
   id="g9631"
   transform="matrix(1,0,0,1,1,0)">
                    <path
   d="M401,975.01L396,980.005L396,986.005L401,991.005L412.5,991.005L412.5,1013L417.5,1013L417.5,991.005L429,991.005L434,986.005L434,980.005L429,975.005L423,975.005L418,970L412,970L407,975.005L401,975.01Z"
   style="fill-opacity:1;fill:#1f1f1f"
   id="path9629" />
                </g>
                <g
   id="g9635"
   transform="matrix(1,0,0,1,1,0)">
                    <path
   d="M417.5,1007L412.5,1007L412.5,1010L417.5,1010L417.5,1007ZM417.5,1002L412.5,1002L412.5,1005L417.5,1005L417.5,1002ZM431,975.01C431,973.906 430.104,973.01 429,973.01L401,973.01C399.896,973.01 399,973.906 399,975.01L399,991C399,992.104 399.896,993 401,993L429,993C430.104,993 431,992.104 431,991L431,975.01ZM423,980.005C423,977.797 421.208,976.005 419,976.005L411,976.005C408.792,976.005 407,977.797 407,980.005L407,986.005C407,988.213 408.792,990.005 411,990.005L419,990.005C421.208,990.005 423,988.213 423,986.005L423,980.005Z"
   style="fill:rgb(135,135,135);"
   id="path9633" />
                </g>
                <g
   id="g9639"
   transform="matrix(1,0,0,1,1,0)">
                    <path
   d="M417.5,1013L412.5,1013L412.5,1019L417.5,1019L417.5,1013ZM417.5,997L412.5,997L412.5,1000L417.5,1000L417.5,997ZM421,980C421,979.448 420.552,979 420,979L410,979C409.448,979 409,979.448 409,980L409,986C409,986.552 409.448,987 410,987L420,987C420.552,987 421,986.552 421,986L421,980ZM396,986.005L393,983.005L396,980.005L396,986.005ZM437,983.005L434,986.005L434,980.005L437,983.005ZM418,982C418,981.448 417.552,981 417,981L413,981C412.448,981 412,981.448 412,982L412,984C412,984.552 412.448,985 413,985L417,985C417.552,985 418,984.552 418,984L418,982ZM418,970L412,970L415,967L418,970Z"
   style="fill:rgb(181,181,181);"
   id="path9637" />
                </g>
            </g>
        </g>
    </g></svg>

<?xml version="1.0" encoding="UTF-8" standalone="no"?>
<svg
   width="100%"
   height="100%"
   viewBox="0 0 64 64"
   version="1.1"
   xml:space="preserve"
   style="fill-rule:evenodd;clip-rule:evenodd;stroke-linejoin:round;stroke-miterlimit:2;"
   id="svg9143"
   sodipodi:docname="Hammer_Rank_01.svg"
   inkscape:version="1.2.2 (732a01da63, 2022-12-09)"
   xmlns:inkscape="http://www.inkscape.org/namespaces/inkscape"
   xmlns:sodipodi="http://sodipodi.sourceforge.net/DTD/sodipodi-0.dtd"
   xmlns="http://www.w3.org/2000/svg"
   xmlns:svg="http://www.w3.org/2000/svg"><defs
   id="defs9147">
        
    
            
        
                
                
                
            
                    
                
                    
                
                    
                </defs><sodipodi:namedview
   id="namedview9145"
   pagecolor="#505050"
   bordercolor="#eeeeee"
   borderopacity="1"
   inkscape:showpageshadow="0"
   inkscape:pageopacity="0"
   inkscape:pagecheckerboard="0"
   inkscape:deskcolor="#505050"
   showgrid="false"
   inkscape:zoom="16.046875"
   inkscape:cx="32.062317"
   inkscape:cy="31.968841"
   inkscape:window-width="3440"
   inkscape:window-height="1377"
   inkscape:window-x="-8"
   inkscape:window-y="-8"
   inkscape:window-maximized="1"
   inkscape:current-layer="svg9143" />
    <path
   id="background"
   style="fill-opacity:0.76;stroke:#000000;stroke-opacity:1;stroke-width:4;stroke-dasharray:none;fill:none"
   d="M 32 7 L 29 10 L 25.994141 13.009766 L 18 13.009766 C 16.896001 13.009766 16 13.905767 16 15.009766 L 16 17.007812 L 13 20.005859 L 10 23.005859 L 13 26.005859 L 16 29.005859 L 16 31 C 16 32.103999 16.896001 33 18 33 L 29.5 33 L 29.5 37 L 29.5 40 L 29.5 42 L 29.5 45 L 29.5 47 L 29.5 50 L 29.5 53 L 29.5 59 L 34.5 59 L 34.5 53 L 34.5 50 L 34.5 47 L 34.5 45 L 34.5 42 L 34.5 40 L 34.5 37 L 34.5 33 L 46 33 C 47.103999 33 48 32.103999 48 31 L 48 29.005859 L 51 26.005859 L 54 23.005859 L 51 20.005859 L 48 17.005859 L 48 15.009766 C 48 13.905767 47.103999 13.009766 46 13.009766 L 38.005859 13.009766 L 35 10 L 32 7 z " />
<g
   transform="matrix(1,0,0,1,0,-384)"
   id="g9645">
        <g
   transform="matrix(1,0,0,1,-384,-576)"
   id="g9643">
            <g
   id="g9641">
                <g
   id="g9631"
   transform="matrix(1,0,0,1,1,0)">
                    <path
   d="m 401,975.01 -5,4.995 v 6 l 5,5 h 11.5 V 1013 h 5 V 991.005 H 429 l 5,-5 v -6 l -5,-5 h -6 L 418,970 h -6 l -5,5.005 z"
   style="display:inline;fill:#1f1f1f;fill-opacity:1"
   id="base"
   inkscape:label="base" />
                </g>
                <g
   id="g9635"
   transform="matrix(1,0,0,1,1,0)">
                    <path
   d="M417.5,1007L412.5,1007L412.5,1010L417.5,1010L417.5,1007ZM417.5,1002L412.5,1002L412.5,1005L417.5,1005L417.5,1002ZM431,975.01C431,973.906 430.104,973.01 429,973.01L401,973.01C399.896,973.01 399,973.906 399,975.01L399,991C399,992.104 399.896,993 401,993L429,993C430.104,993 431,992.104 431,991L431,975.01ZM423,980.005C423,977.797 421.208,976.005 419,976.005L411,976.005C408.792,976.005 407,977.797 407,980.005L407,986.005C407,988.213 408.792,990.005 411,990.005L419,990.005C421.208,990.005 423,988.213 423,986.005L423,980.005Z"
   style="fill:rgb(135,135,135);"
   id="path9633" />
                </g>
                <g
   id="g9639"
   transform="matrix(1,0,0,1,1,0)">
                    <path
   d="M417.5,1013L412.5,1013L412.5,1019L417.5,1019L417.5,1013ZM417.5,997L412.5,997L412.5,1000L417.5,1000L417.5,997ZM421,980C421,979.448 420.552,979 420,979L410,979C409.448,979 409,979.448 409,980L409,986C409,986.552 409.448,987 410,987L420,987C420.552,987 421,986.552 421,986L421,980ZM396,986.005L393,983.005L396,980.005L396,986.005ZM437,983.005L434,986.005L434,980.005L437,983.005ZM418,982C418,981.448 417.552,981 417,981L413,981C412.448,981 412,981.448 412,982L412,984C412,984.552 412.448,985 413,985L417,985C417.552,985 418,984.552 418,984L418,982ZM418,970L412,970L415,967L418,970Z"
   style="fill:rgb(181,181,181);"
   id="path9637" />
                </g>
            </g>
        </g>
    </g></svg>
